X:98
T:RVW2/2/98 Covent Garden
C:Mrs. Verrall, Horsham, Sussex, 24 May 1904
Z:Transcribed by Simon Furey and Lewis  Jones
L:1/8
Q:1/4=60
M:2/4
I:linebreak $
K:Gm
"^(Editorial suggestion) " G | Gd GF | (Bc) dg | d>c (c/B/)(G/F/) | G3 G |$ Gd GF | B(B c)c | 
w: I|was in Co- vent|Gar- * den three|pa- ces~(?) I _ did _|walk. I|met two pret- ty|lov- yers _ so|
(dg) f(d/c/) | d3"^(a)" B |$ B>A Bc | d2 bg | fd (B/c/)(d/e/) | f3 g |$ fd cc | (de) fg | 
w: sweet- * ly to _|talk. 'Twas|of a gay young|la- dy and|her young prent- * ice _|boy. In|pri- vate they were|cour- * ting for|
d>c (c/B/)(G/F/) | G3 ||$ G | Gd GF | Bc dg | d>c c/B/G/F/ | G3 G |$ Gd GF | BB cc | dg fd/c/ | 
w: he was all _ her _|joy.|||||||||
d3"^(a) var." G/A/ |$ B>A Bc | d2 bg | fd B/c/d/e/ | f3 g |$ fd cc | de fg | d>c c/B/G/F/ | 
w: ||||||||
G3 z |] 
w: |


